X:183
T: Die Mordeltern
N: Q0085Y
O: Mitteleuropa, Deutschland (BRD) , Westfalen
R: Ballade, Habgier, Mord, Reue, Selbstmord
M: 3/4
L: 1/16
K: G
D4 | G2D2D4G4 | E2E2E6
G2 | F2G2A4A2G2 | F2E2D3ED2
C2 | B,2D2D4D4 | D2G2G6
G2 | G2A2B4B4 | A2F2G4

@@@ Tune index: 1238
